X:935
T:Ille Dhuinn's Toigh Team Thu
C:Joe Buchanan's Scottish Tome - Page 547.2
I:547 2
Z:Carl Allison
R:Waltz
L:1/4
M:3/4
K:G
A2 A | B3 | A2 G | E3 | c2 c | d2 d | e3 | A2 A | 
c2 d | B2 A | G2 A | B2 d | e2 c | d2 B | A3 | A2 :|

